X: 37755
T: Someone Made Me Smile Today
R: jig
M: 6/8
K: Gmajor
|:G2D GAB|cAc BGF|EAB cAG|FAc edB|
G2D GAB|cAc BGF|EAc BcG|FAd cdB|
A2G ABc|B2B BGD|c2B cde|d2d dBG|
AcA BGF|E2c ABc|dgB cAB|GAF G3:|

